X:247
T: ICH BIN EIN LUSTGER JAEGERSKNECHT
N: Z0246
O: Europa, Mitteleuropa, Deutschland, Herzogtum Berg
R: Jaeger - Lied
M: 2/4
L: 1/16
K: F
c2 | c2c2c2c2 | c2c2A4 | B2B2G4 |
G2G2G2A2 | B2c2A4 | z4
A2B2 | c4c4 | c2B2A2c2 | c2B2A2
Ac | B2BAG2GB | B2BAG2
G2 | F2A2c2A2 | G4F2

@@@ Tune index: 10005
